X:1
T: The Postmaster
C:Muriel A Johnstone
R:Reel
%Q: 232
K:G
M:4/4
L:1/8
|:D2|G3A GE D2|G3A Ad d2|G3A GE DE|GE DB, A,2 D2|
G3A GE D2|G3A Ad d2|G3A GE DE|Ge dB A2 d2|
e3e dB G2|AB AG ED D2|GE DE Ge dB|AG EG A2 d2|
e3e dB G2|AB AG ED DE|G3G ge de|dB AB G2:|
